X: 2001
T: EARL GREY
R: Strathspey.
%R: strathspey
B: James Kerr "Merry Melodies" v.2 p.3 #1
Z: 2016 John Chambers <jc:trillian.mit.edu>
M: C
L: 1/8
K: A
uE !segno!|\
vA>uBA<E F<AE>uc | vd>uB dcBA G<B B>uc |\
vA>uB A<E F<A E>uc | (3def (3efg (3afe (3dcB |\
vA>uBA<E F<AE>uc |
vd>uB dcBA G<B B>uc |\
vA>uB A<E F<A E>uc | (3def (3efg a<A A>ug |\
va>vA ug>uA f>A e>A | d>B c>A G<B B>ug |\
va>vA ug>uA f>A e>A |
d>f (3efg a<A A>ug |\
va>vA ug>uA f>A e>A | vd>uB dcBA G<B B>uE |\
A>BA<E F>AE>c | (3def (3efg (3afe (3d"_D.C."cB !segno!|]

%%sep 1 1 500
%%sep 1 1 500

